packages/icons/src/assets/video-text.svg

<svg width="16" height="16" viewBox="0 0 16 16" fill="none" xmlns="http://www.w3.org/2000/svg"><path d="M15.4404 6.7002V9.2002H14.1904V7.9502H12.3398V13.2002H13.8701V14.4502H9.57031V13.2002H11.0898V7.9502H9.25V9.2002H8V6.7002H15.4404ZM14.75 2.59961C15.0815 2.59961 15.3994 2.72908 15.6338 2.95898C15.8682 3.18893 15.9999 3.50099 16 3.82617V5.5H14.75V3.82617H4.9502V12.166H8V13.3926H1.25C0.918508 13.3926 0.600626 13.2632 0.366211 13.0332C0.131811 12.8032 6.43614e-06 12.4913 0 12.166V3.82617C5.91786e-05 3.50099 0.131843 3.18893 0.366211 2.95898C0.600617 2.72908 0.918549 2.59961 1.25 2.59961H14.75ZM1.25 12.166H3.7002V10.2002H1.25V12.166ZM1.25 8.9502H3.7002V6.90039H1.25V8.9502ZM1.25 5.65039H3.7002V3.82617H1.25V5.65039Z" fill="currentColor"/></svg>

<svg xmlns="http://www.w3.org/2000/svg" width="16" height="16" viewBox="0 0 16 16"><path d="M15.44 6.7v2.5h-1.25V7.95h-1.85v5.25h1.53v1.25h-4.3V13.2h1.52V7.95H9.25V9.2H8V6.7zm-.69-4.1c.332 0 .65.13.884.359.234.23.366.542.366.867V5.5h-1.25V3.826h-9.8v8.34H8v1.227H1.25c-.331 0-.65-.13-.884-.36A1.22 1.22 0 0 1 0 12.166v-8.34c0-.325.132-.637.366-.867.235-.23.553-.36.884-.36zm-13.5 9.566H3.7V10.2H1.25zm0-3.216H3.7V6.9H1.25zm0-3.3H3.7V3.826H1.25z"/></svg>
